X:452
T:Toy Heart
C:Ricky Skaggs - Family & Friends
N:mandolin: Ricky Skaggs - Transcribed by Philippe Colleu
R:bluegrass
L:1/8
Q:1/4=225
M:4/4
K:C
"(113 bpm)"z6 C/G,3/2 | "C"A,2 C2 ^D3/2z/ G2 | "G"z2 EF ^FG Ac | "C"dc ^d2 eg ae | 
"C7"c'c zc' c4 | "F"^dc =d2 ^d3d | z^d zd zd zc | "C7"dc AG cA/z/ E2 | z3F/z/ G_B G2 | 
"F"[_B/F/]z/G zF z2 [B/F/]z/G | zF z2 [_B/F/]z/G F2 | "C"^D/z/E CA, CE zF | z^F zG zA zc | 
z^d/z/ eg ac' ag | "G"c'g a^d/z/ ec fd/z/ | "C"ec A2 c2 _B^F/z/ | G_B (3^F=F^D (3FDC D/z/E | 
C8 | 


